COLOR/action 16/16/mail-send.svg

<svg enable-background="new" height="16" viewBox="0 0 16 16" width="16" xmlns="http://www.w3.org/2000/svg"><g fill="none"><g transform="matrix(3.7797136 0 0 3.7797136 .2 0)"><path d="m1.3594782.32630348c-.1734073 0-.3080599.003192-.41873529.0218769-.11067537.0186845-.1986674.0541092-.26284254.11849977-.0641752.0643907-.0994253.15301384-.11782598.2643457-.0184007.11133187-.0226026.2481501-.0217525.42295315v.9625829.9625831c-.00085279.1748031.003352.311621.0217526.4229531.0184002.111332.05365.1999551.11782598.2643458.0641757.06439.15216648.097993.26284254.1166767.11067599.018683.24532789.023701.41873519.023701h1.4266003c.173408 0 .3101125-.00502.4205481-.023701.1104357-.0186911.1970947-.0522674.2610297-.1166767.0639347-.0644107.0992707-.1531016.117826-.2643458.0185543-.1112443.0217528-.248203.0217528-.4229531v-.9625831-.9625829c0-.17474945-.00319-.31170895-.021753-.42295315-.0185551-.11124418-.0538906-.19993608-.1178258-.26434569-.063935-.06440962-.150594-.09980891-.2610298-.11849978-.1104356-.01869088-.2471407-.0218769-.4205481-.0218769z" fill="#f6f5f4" stroke-width=".843425"/><path d="m1.3306638.26457055c-.1804129 0-.3205052.003302-.43565182.0226313-.11514654.0193288-.20669336.055975-.27346113.12258597-.0667678.066611-.1034419.1582902-.12258602.27346108-.0191441.11517088-.0235156.25670706-.0226312.4375377v.9957756.9957756c-.00088726.1808309.003488.3223667.0226312.4375379.0191436.1151711.0558176.2068501.12258603.2734611.0667685.066611.15831387.1013718.27346112.1206999.11514742.019329.25523892.024518.43565182.024518h1.4842336c.1804136 0 .3226406-.00519.4375379-.024518.1148972-.019335.2050572-.05407.2715752-.1206999.066518-.06663.1032812-.1583809.122586-.2734611.019304-.1150804.02263-.2567619.02263-.4375379v-.9957756-.9957755c0-.18077537-.00333-.32245758-.02263-.43753778-.0193049-.11508022-.056068-.20683046-.122586-.27346111-.066518-.06663064-.156678-.10325061-.2715752-.122586-.1148972-.0193354-.257125-.02263126-.4375379-.02263126zm0 .12635786h1.4842336c.1782265 0 .3142572.005693.4149066.0226313.1006493.0169377.1621235.0451249.2036813.0867533.041557.0416282.069831.10280414.086754.20368146.016922.10087753.02263.23819906.02263.41679243v.9957756.9957756c0 .1785938-.00571.315915-.02263.4167923-.016923.1008775-.045195.1620534-.086754.2036814-.041557.041627-.1030314.06793-.2036813.084867-.1006492.016937-.2366794.022632-.4149066.022632h-1.4842336c-.1782263 0-.3139566-.00569-.41490652-.022632-.10094982-.0169454-.16381982-.0432182-.20556732-.0848671-.0417475-.041649-.06811478-.1028958-.08486724-.2036814-.01675245-.1007856-.02162104-.2382585-.02074533-.4167925v-.9957756-.9957755-.0018829c-.00087319-.17853719.003992-.3141238.0207453-.41490957.0167529-.10078577.0431203-.16203245.0848672-.20368136.0417469-.0416489.10461832-.0698077.20556735-.0867531.10094866-.0169455.23668016-.0226313.41490656-.02263136z" fill="#6c6c6c" stroke-width=".875"/></g><g enable-background="new" fill="#45a925" stroke-width=".642857" transform="matrix(1 0 0 -1 -363.91088 76.412069)"><g enable-background="new" fill="#45a925"><path d="m373.91088 64.071881 6 4.5-6 4.5v-3h-6v-3h6z"/><path d="m4.1484375 8 3.75 5 3.7500005-5h-.375l-3.3750005 4.5-3.375-4.5z" opacity=".2" transform="matrix(0 1.2 1.2 0 364.31088 59.093471)"/></g><g enable-background="new" fill="#e6e6e6"><path d="m373.91088 64.021596v.5l5.66602 4.25.33398-.25zm-6 3v.5h6v-.5z" fill="#000" opacity=".2"/><path d="m373.91088 73.121597v-.5l5.66602-4.25.33398.25zm-6-3v-.5h6v.5z" fill="#fff" opacity=".3"/></g></g></g></svg>

<?xml version="1.0" encoding="UTF-8" standalone="no"?>
<svg
   xmlns:dc="http://purl.org/dc/elements/1.1/"
   xmlns:cc="http://creativecommons.org/ns#"
   xmlns:rdf="http://www.w3.org/1999/02/22-rdf-syntax-ns#"
   xmlns:svg="http://www.w3.org/2000/svg"
   xmlns="http://www.w3.org/2000/svg"
   xmlns:xlink="http://www.w3.org/1999/xlink"
   xmlns:sodipodi="http://sodipodi.sourceforge.net/DTD/sodipodi-0.dtd"
   xmlns:inkscape="http://www.inkscape.org/namespaces/inkscape"
   height="16"
   viewBox="0 0 16 16"
   width="16"
   version="1.1"
   id="svg74"
   sodipodi:docname="mail-send.svg"
   inkscape:version="0.92.4 (5da689c313, 2019-01-14)"
   style="enable-background:new">
  <metadata
     id="metadata80">
    <rdf:RDF>
      <cc:Work
         rdf:about="">
        <dc:format>image/svg+xml</dc:format>
        <dc:type
           rdf:resource="http://purl.org/dc/dcmitype/StillImage" />
        <dc:title />
      </cc:Work>
    </rdf:RDF>
  </metadata>
  <defs
     id="defs78">
    <linearGradient
       gradientTransform="matrix(0.31914183,0,0,0.31914183,0.27556378,32.814522)"
       id="d-0"
       gradientUnits="userSpaceOnUse"
       x1="34.918625"
       x2="34.761932"
       xlink:href="#a"
       y1="22.817245"
       y2="45.972855" />
    <linearGradient
       id="linearGradient1190">
      <stop
         offset="0"
         stop-color="#fff"
         id="stop2-9" />
      <stop
         offset=".125"
         stop-color="#fff"
         stop-opacity=".098039"
         id="stop4-3" />
      <stop
         offset=".92500001"
         stop-color="#fff"
         stop-opacity=".098039"
         id="stop6-6" />
      <stop
         offset="1"
         stop-color="#fff"
         stop-opacity=".498039"
         id="stop8-0" />
    </linearGradient>
    <filter
       style="color-interpolation-filters:sRGB"
       id="c-6">
      <feBlend
         in2="BackgroundImage"
         mode="multiply"
         id="feBlend16-2" />
    </filter>
    <linearGradient
       gradientTransform="matrix(0.31914183,0,0,0.31914183,0.27556378,32.814522)"
       id="f-6"
       gradientUnits="userSpaceOnUse"
       x1="24.059015"
       x2="25.074343"
       xlink:href="#a"
       y1="1.774151"
       y2="42.46537" />
    <linearGradient
       gradientTransform="matrix(0.31914183,0,0,0.31914183,0.27556378,32.814522)"
       id="e-1"
       gradientUnits="userSpaceOnUse"
       x1="25.065369"
       x2="25.183651"
       y1="5.5256934"
       y2="38.116615">
      <stop
         offset="0"
         stop-color="#fff"
         id="stop20-8" />
      <stop
         offset=".125"
         stop-color="#fff"
         stop-opacity=".098039"
         id="stop22-7" />
      <stop
         offset=".92500001"
         stop-color="#fff"
         stop-opacity=".098039"
         id="stop24-9" />
      <stop
         offset="1"
         stop-color="#fff"
         stop-opacity="0"
         id="stop26-2" />
    </linearGradient>
    <linearGradient
       gradientTransform="matrix(0.34782603,0,0,0.34782603,-0.38573823,31.833195)"
       id="b-0"
       gradientUnits="userSpaceOnUse"
       x1="23.612318"
       x2="27.27836"
       y1="23.79875"
       y2="6.9269948">
      <stop
         offset="0"
         stop-color="#f6f5f4"
         id="stop11-2" />
      <stop
         offset="1"
         stop-color="#e9e7e4"
         id="stop13-3" />
    </linearGradient>
    <linearGradient
       gradientTransform="matrix(0.34782603,0,0,0.34782603,-0.96022347,32.493056)"
       id="b-0-3"
       gradientUnits="userSpaceOnUse"
       x1="23.612318"
       x2="27.27836"
       y1="23.79875"
       y2="6.9269948">
      <stop
         offset="0"
         stop-color="#f6f5f4"
         id="stop11-2-6" />
      <stop
         offset="1"
         stop-color="#e9e7e4"
         id="stop13-3-7" />
    </linearGradient>
  </defs>
  <sodipodi:namedview
     pagecolor="#ffffff"
     bordercolor="#666666"
     borderopacity="1"
     objecttolerance="10"
     gridtolerance="10"
     guidetolerance="10"
     inkscape:pageopacity="0"
     inkscape:pageshadow="2"
     inkscape:window-width="1920"
     inkscape:window-height="1016"
     id="namedview76"
     showgrid="false"
     inkscape:zoom="52.5625"
     inkscape:cx="8"
     inkscape:cy="8"
     inkscape:window-x="0"
     inkscape:window-y="27"
     inkscape:window-maximized="1"
     inkscape:current-layer="g961" />
  <linearGradient
     id="a">
    <stop
       offset="0"
       stop-color="#fff"
       id="stop2" />
    <stop
       offset=".125"
       stop-color="#fff"
       stop-opacity=".098039"
       id="stop4" />
    <stop
       offset=".92500001"
       stop-color="#fff"
       stop-opacity=".098039"
       id="stop6" />
    <stop
       offset="1"
       stop-color="#fff"
       stop-opacity=".498039"
       id="stop8" />
  </linearGradient>
  <linearGradient
     id="b"
     gradientUnits="userSpaceOnUse"
     x1="23.612318"
     x2="27.27836"
     y1="23.79875"
     y2="6.9269948">
    <stop
       offset="0"
       stop-color="#f6f5f4"
       id="stop11" />
    <stop
       offset="1"
       stop-color="#e9e7e4"
       id="stop13" />
  </linearGradient>
  <filter
     id="c"
     style="color-interpolation-filters:sRGB">
    <feBlend
       in2="BackgroundImage"
       mode="multiply"
       id="feBlend16" />
  </filter>
  <linearGradient
     id="d"
     gradientUnits="userSpaceOnUse"
     x1="34.918625"
     x2="34.761932"
     xlink:href="#a"
     y1="22.817245"
     y2="45.972855" />
  <linearGradient
     id="e"
     gradientUnits="userSpaceOnUse"
     x1="25.065369"
     x2="25.183651"
     y1="5.5256934"
     y2="38.116615">
    <stop
       offset="0"
       stop-color="#fff"
       id="stop20" />
    <stop
       offset=".125"
       stop-color="#fff"
       stop-opacity=".098039"
       id="stop22" />
    <stop
       offset=".92500001"
       stop-color="#fff"
       stop-opacity=".098039"
       id="stop24" />
    <stop
       offset="1"
       stop-color="#fff"
       stop-opacity="0"
       id="stop26" />
  </linearGradient>
  <linearGradient
     id="f"
     gradientUnits="userSpaceOnUse"
     x1="24.059015"
     x2="25.074343"
     xlink:href="#a"
     y1="1.774151"
     y2="42.46537" />
  <g
     id="g72"
     style="fill:none"
     transform="translate(0,-32)">
    <g
       id="g963">
      <g
         id="g961"
         transform="matrix(3.7797136,0,0,3.7797136,0.19999998,32)">
        <path
           style="fill:#f6f5f4;fill-opacity:1;stroke-width:0.84342474"
           inkscape:connector-curvature="0"
           d="m 1.3594782,0.32630348 c -0.1734073,0 -0.3080599,0.003192 -0.41873529,0.0218769 -0.11067537,0.0186845 -0.1986674,0.0541092 -0.26284254,0.11849977 -0.0641752,0.0643907 -0.0994253,0.15301384 -0.11782598,0.2643457 -0.0184007,0.11133187 -0.0226026,0.2481501 -0.0217525,0.42295315 V 2.1165619 3.079145 c -8.5279e-4,0.1748031 0.003352,0.311621 0.0217526,0.4229531 0.0184002,0.111332 0.05365,0.1999551 0.11782598,0.2643458 0.0641757,0.06439 0.15216648,0.097993 0.26284254,0.1166767 0.11067599,0.018683 0.24532789,0.023701 0.41873519,0.023701 h 1.4266003 c 0.173408,0 0.3101125,-0.00502 0.4205481,-0.023701 C 3.3170623,3.8644295 3.4037213,3.8308532 3.4676563,3.7664439 3.531591,3.7020332 3.566927,3.6133423 3.5854823,3.5020981 3.6040366,3.3908538 3.6072351,3.2538951 3.6072351,3.079145 V 2.1165619 1.153979 c 0,-0.17474945 -0.00319,-0.31170895 -0.021753,-0.42295315 C 3.566927,0.61978167 3.5315915,0.53108977 3.4676563,0.46668016 3.4037213,0.40227054 3.3170623,0.36687125 3.2066265,0.34818038 3.0961909,0.3294895 2.9594858,0.32630348 2.7860784,0.32630348 Z"
           id="path963"
           sodipodi:nodetypes="scsscccscssscccscsccsss" />
        <path
           id="path23"
           d="m 1.3306638,0.26457055 c -0.1804129,0 -0.3205052,0.003302 -0.43565182,0.0226313 -0.11514654,0.0193288 -0.20669336,0.055975 -0.27346113,0.12258597 -0.0667678,0.066611 -0.1034419,0.1582902 -0.12258602,0.27346108 -0.0191441,0.11517088 -0.0235156,0.25670706 -0.0226312,0.4375377 v 0.9957756 0.9957756 c -8.8726e-4,0.1808309 0.003488,0.3223667 0.0226312,0.4375379 0.0191436,0.1151711 0.0558176,0.2068501 0.12258603,0.2734611 0.0667685,0.066611 0.15831387,0.1013718 0.27346112,0.1206999 0.11514742,0.019329 0.25523892,0.024518 0.43565182,0.024518 h 1.4842336 c 0.1804136,0 0.3226406,-0.00519 0.4375379,-0.024518 0.1148972,-0.019335 0.2050572,-0.05407 0.2715752,-0.1206999 0.066518,-0.06663 0.1032812,-0.1583809 0.122586,-0.2734611 0.019304,-0.1150804 0.02263,-0.2567619 0.02263,-0.4375379 V 2.1165622 1.1207867 c 0,-0.18077537 -0.00333,-0.32245758 -0.02263,-0.43753778 C 3.6272916,0.5681687 3.5905285,0.47641846 3.5240105,0.40978781 3.4574925,0.34315717 3.3673325,0.3065372 3.2524353,0.28720181 3.1375381,0.26786641 2.9953103,0.26457055 2.8148974,0.26457055 Z m 0,0.12635786 h 1.4842336 c 0.1782265,0 0.3142572,0.005693 0.4149066,0.0226313 0.1006493,0.0169377 0.1621235,0.0451249 0.2036813,0.0867533 0.041557,0.0416282 0.069831,0.10280414 0.086754,0.20368146 0.016922,0.10087753 0.02263,0.23819906 0.02263,0.41679243 v 0.9957756 0.9957756 c 0,0.1785938 -0.00571,0.315915 -0.02263,0.4167923 -0.016923,0.1008775 -0.045195,0.1620534 -0.086754,0.2036814 -0.041557,0.041627 -0.1030314,0.06793 -0.2036813,0.084867 -0.1006492,0.016937 -0.2366794,0.022632 -0.4149066,0.022632 H 1.3306638 c -0.1782263,0 -0.3139566,-0.00569 -0.41490652,-0.022632 C 0.81480746,3.8007334 0.75193746,3.7744606 0.71018996,3.7328117 0.66844246,3.6911627 0.64207518,3.6299159 0.62532272,3.5291303 0.60857027,3.4283447 0.60370168,3.2908718 0.60457739,3.1123378 V 2.1165622 1.1207867 1.1189038 C 0.6037042,0.94036661 0.60856939,0.80478 0.62532269,0.70399423 0.64207559,0.60320846 0.66844299,0.54196178 0.71018989,0.50031287 0.75193679,0.45866397 0.81480821,0.43050517 0.91575724,0.41355977 1.0167059,0.39661427 1.1524374,0.39092847 1.3306638,0.39092841 Z"
           inkscape:connector-curvature="0"
           style="fill:#6c6c6c;fill-opacity:1;stroke-width:0.87499988" />
      </g>
      <g
         style="fill:#45a925;enable-background:new;fill-opacity:1"
         id="g913"
         transform="translate(-18.17229,33.740587)">
        <g
           id="g888"
           transform="matrix(1,0,0,-1,-345.73859,74.671482)"
           style="stroke-width:0.64285702;enable-background:new;fill:#45a925;fill-opacity:1">
          <path
             id="path884"
             d="m 373.91088,64.071881 6,4.5 -6,4.5 v -3 h -6 v -3 h 6 z"
             inkscape:connector-curvature="0"
             style="fill:#45a925;fill-opacity:1" />
          <path
             id="path886"
             transform="matrix(0,1.2,1.2,0,364.31088,59.093471)"
             d="m 4.1484375,8 3.75,5 3.7500005,-5 h -0.375 l -3.3750005,4.5 -3.375,-4.5 z"
             inkscape:connector-curvature="0"
             style="opacity:0.2;fill:#45a925;fill-opacity:1" />
        </g>
        <g
           style="stroke-width:0.64285702;enable-background:new;fill:#e6e6e6;fill-opacity:1"
           transform="matrix(1,0,0,-1,-345.73859,74.671482)"
           id="g919">
          <path
             id="path928"
             d="m 373.91088,64.021596 v 0.5 l 5.66602,4.25 0.33398,-0.25 z m -6,3 v 0.5 h 6 v -0.5 z"
             style="opacity:0.2;fill:#000000;fill-opacity:1"
             inkscape:connector-curvature="0" />
          <path
             inkscape:connector-curvature="0"
             style="opacity:0.3;fill:#ffffff;fill-opacity:1"
             d="m 373.91088,73.121597 v -0.5 l 5.66602,-4.25 0.33398,0.25 z m -6,-3 v -0.5 h 6 v 0.5 z"
             id="path1077" />
        </g>
      </g>
    </g>
  </g>
</svg>
